X:1
T:Title
L:1/8
M:12/4
K:F
V:1 treble nm="Choir Aahs"
V:1
 F2 A4 B2 c4 c2 d4 d2 c4 |[M:8/4] c2 d2 e2 f2 d4 e4 |[M:12/4] c2 f4 e2 d4 c2 B4 A2 c4 | %3
[M:10/4] A2 d4 c2 c2 B4 c6 |[M:12/4] c2 f4 e2 d4 c2 B4 A2 G4 |[M:10/4] A2 c4 A2 A2 G4 A6 | %6
[M:12/4] A2 d4 c2 B4 A2 G4 F2 E4 |[M:10/4] A2 G4 F2 F2 E4 F6 |] %8

